X:1
T:Heart and Soul
C:Hoagy Carmichael
M:4/4
L:1/4
Q:100
K:C
%% Classic I-vi-IV-V progression (C-Am-F-G)
%%staves {1 2}
V:1 clef=treble
V:2 clef=bass
[V:1] c c c B | A A A G | F F F E | G G G2 |
[V:2] [CEG]4 | [ACE]4 | [FAc]4 | [GBd]4 |
[V:1] c c c B | A A A G | F F G E | C4 |
[V:2] [CEG]4 | [ACE]4 | [FAc] [GBd] | [CEG]4 |]
